X:1
T:Away in a Manger
C:James R. Murray
M:3/4
L:1/4
Q:1/4=96
K:G
G | G B d | e2 e | d B G | A2 A | B c d | e2 e | d B G | A2 G | B c d | e f g | d e c | d2 B | c d e | d c B | A B G | G2 z |]
w: A-way in a man-ger no crib for his bed | The lit-tle Lord Je-sus lay down his sweet head | The stars in the sky look down where he lay | The lit-tle Lord Je-sus a-sleep on the hay | Be near me Lord Je-sus I ask thee to stay | Close by me for ev-er and love me I pray |
